X:1
T:Title
%%score { ( 1 3 ) | ( 2 4 ) }
L:1/8
Q:1/4=100
M:4/4
K:A
V:1 treble nm="Grand Piano"
V:3 treble 
V:2 bass 
V:4 bass 
V:1
 E2 c>B A2 A[EG] | [DF]2 [FB]2 [FB]3 [FA] | G2 GA B2 [Gd]2 | d2 c2 c4 | E2 c>B A2 A[EG] | %5
w: D.~B.~Towner * * * * *|||||
 [DF]2 [FB]2 [FB]3 [FA] | G2 GA B2 c>B | [CA]6 z2 | [Fd]2 [Fd]>[Fd] [Fd]2 [FA][Fd] | c2 c>c c2 Ac | %10
w: |||||
 BBBB [^DAc]2 [A^d]2 |[M:3/4] e6 |[M:1/4] [EBd]2 |[M:4/4] [EAc]2 [EAc]>[DEB] [CEA]2 [CEA][A,EG] | %14
w: ||||
 [A,DF]2 [DFB]2 [DFB]3 [B,FA] | [B,EG]2 [B,EG][CEA] [DGB]2 [EGc]>[DGB] |[M:3/4] [CA]6 |] %17
w: |||
V:2
 [A,C]2 [A,E]>[A,D] [A,C]2 [A,C][C,A,] | [D,A,]2 [D,D]2 [D,D]3 [D,B,] | %2
 [E,B,E]2 [E,B,E][E,CE] [E,DE]2 [E,B,]2 | [A,F]2 [A,E]2 [A,E]4 | %4
 [A,C]2 [A,E]>[K:bass][A,D] [A,C]2 [A,C][C,A,] | [D,A,]2 [D,D]2 [D,D]3 [D,B,] | %6
 [E,B,E]2 [E,B,E][E,CE] [E,DE]2 [E,G,E]>[E,G,D] | [A,,A,]6 z2 | %8
 [D,A,]2 [D,A,]>[D,A,] [D,A,]2 [D,A,][D,A,] | [A,E]2 [A,E]>[A,E] [A,E]2 [A,CE][A,EA] | %10
 [B,EG][B,EG][B,EG][B,EG][K:bass] B,,2 [B,,B,]2 |[M:3/4] B,6 |[M:1/4] G,2 | %13
[M:4/4] A,2 A,>A, A,2 A,C, | D,2 D,2 D,3 D, | E,2 E,E, E,2 E,>E, |[M:3/4] A,,6 |] %17
V:3
 x8 | x8 | x8 | x8 | x8 | x8 | x8 | x8 | x8 | x8 | x8 |[M:3/4] G2 G2 A2 |[M:1/4] x2 |[M:4/4] x8 | %14
 x8 | x8 |[M:3/4] x6 |] %17
V:4
 x8 | x8 | x8 | x8 | x7/2[K:bass] x9/2 | x8 | x8 | x8 | x8 | x8 | x4[K:bass] x4 | %11
[M:3/4] E,2 E,2 F,2 |[M:1/4] x2 |[M:4/4] x8 | x8 | x8 |[M:3/4] x6 |] %17

